X: 1566
T: Tinware Lass, The
R:hornpipe
N:"Collected by F. O'Neill"
B:O'Neill's 1566
Z:Transcribed by Michael Hogan
M:2/4
L:1/16
Q:80
K:G
(BA) | GABc d2(ef) | gfaf gedc | BABc dBGA | B2A2 AcBA |
GABc d2(3def | gfaf gedc | BABc dBAc | B2G2 G2 :||
(3efg | a2d2 d2(3def | g2G2 G2(3def | gfge dBGA | B2A2 A2(BA) |
GABc d2(3def | gfaf gedc | BABc dBAc | B2G2 G2 :||


